resources/logo.svg

<svg width="1280" height="445" viewBox="0 0 1280 445" fill="none" xmlns="http://www.w3.org/2000/svg">
    <path fill-rule="evenodd" clip-rule="evenodd"
        d="M669.3 4.3C664.9 4.6 650.9 6.2 647.4 6.7C643.5 7.3 635.3 7.8 621.5 8.4C611.9 8.8 599 9.5 596.1 9.7C593.1 10 585.7 10.4 576.1 10.9C570.4 11.1 561.5 12 556.7 12.8C533.1 16.6 522.9 18.9 513.3 22.4C507.6 24.5 498.4 28.9 495 31.1C491.3 33.5 483.7 39.7 481.9 41.9C480.1 44 475.1 51.9 474.7 53.2C474.1 55.2 474.5 60.9 475.4 63C476.7 66.3 476.7 66.2 475.5 70.9C474 76.5 473.4 80 472.7 86.7C472.4 89.7 471.9 94.1 471.6 96.5C470.5 105.1 470.2 108.1 469.8 116.3C469.5 122.3 469.5 126.5 469.6 131C469.9 138.8 469.9 138.5 469.4 147.1C468.9 156.6 468.9 162.5 469.2 179.8C469.4 193.7 469.7 200.3 470.3 204.5C470.4 205.6 470.7 208.7 470.9 211.4C471.2 214.2 471.5 218.1 471.8 220.1C472 222.1 472.2 225.3 472.2 227C472.2 232.4 472.7 238.7 473.7 244.7C474.2 247.9 474.8 252 475 253.8C475.3 255.6 475.6 257.9 475.8 258.9C475.9 259.9 476.2 262.2 476.4 264.1C476.7 265.9 477.1 268.6 477.4 270C477.7 271.4 478 273.1 478 273.8C478 275.6 478.8 279.1 480.8 286.6C481.4 289.1 483.7 295.2 485.4 299.1C488 305.2 489.1 307.6 490 309.3C491.2 311.8 495.7 318.1 498.9 321.9C500.4 323.6 502 325.6 502.6 326.4C503.1 327.3 504 328.4 504.6 328.9C506.9 331 512.5 333.2 520.1 335C522.4 335.6 525.9 336.5 527.8 337C540.7 340.4 549.9 341.4 558.5 340.3C560.2 340.1 564.7 339.8 568.5 339.6C572.4 339.4 578.7 339.2 582.6 339C596.3 338.5 604.6 338.4 613 338.9C623.7 339.5 631.8 339.8 639.2 339.8C646.4 339.9 677.2 339.2 685.4 338.8C688.6 338.6 694.4 338.4 698.2 338.2C702.1 338.1 706.9 337.8 708.8 337.7C710.8 337.5 714.9 337.3 717.9 337.1C730.7 336.4 736.9 335.4 745.4 332.8C753.6 330.3 762.5 326.4 768.3 322.7C771.5 320.6 780.1 314.3 783.4 311.7C787.9 308 793 303.1 795.8 299.5C799.1 295.5 801.5 290.1 803.6 282C803.9 280.5 804.6 278.5 805 277.8C805.4 277 805.9 275.9 806.2 275.3C806.5 274.7 807 273 807.2 271.5C807.5 269.9 808.4 266 809.1 262.6C810.4 257.2 810.5 256 810.9 251.2C811.2 245.5 811 228.3 810.5 220.5C810.1 213.4 810.2 201.9 810.8 193.8C811.6 183.1 811.8 175.9 811.4 166.8C811 156.3 810.6 151.9 808.4 130.3C808.2 128.9 807.7 123.3 807.3 118C806.8 112.6 806.3 106.9 806.1 105.3C805.8 102.3 805 91.4 804.5 83.5C804.3 81 804.1 77.5 803.9 75.7C803.7 74 803.6 70.8 803.6 68.8C803.6 63.7 803.1 59.3 801.9 54.9C800.2 48.9 799.8 46.6 799.8 44.7C799.9 43.4 799.7 42.6 799.3 41.7C799 41 798.4 39.3 797.9 37.8C797.2 35.6 796.9 35 795.6 33.7C793.1 31.2 789.7 29 788.2 29C787.8 29 786.2 28.2 784.5 27.2C782.9 26.2 780.6 25 779.6 24.5C778.5 24 777.1 23.3 776.4 22.9C774.9 22 771.5 20.8 768.4 19.9C766.1 19.3 762.8 18 758 15.7C753.6 13.7 743 10.4 739.4 9.9C738.6 9.8 734.3 9.1 729.7 8.4C717.2 6.4 715.9 6.2 701 5.9C694.8 5.8 688.9 5.5 687.8 5.3C683.8 4.8 675.5 4 673.8 4C672.9 4 670.9 4.2 669.3 4.3ZM664.8 50.2C671.3 51 674.1 51.5 679.5 53.1C685.5 54.9 691.7 57.3 695.7 59.3C699.4 61.2 703.1 64.2 705.9 67.8C712.3 76 716.1 84.1 717.6 92.9C719.5 104.5 718.1 115.3 713.5 124.2C711 129.1 709.7 130.4 701.4 136.7C695.7 141 692.2 143.3 687.3 145.6C683.7 147.4 682.6 147.8 678.7 148.8C672.6 150.3 668.8 150.7 656.2 151C650.5 151.1 644.7 151.3 643.4 151.4C640.4 151.5 626.5 151.1 622.6 150.7C615.2 150 609 148 603.7 144.9C601.7 143.7 599.8 142.5 599.5 142.2C599.2 141.9 596.9 140.3 594.4 138.5C585.7 132.2 581.4 128.2 578.3 123.4C576.8 121 573.9 115.1 573 112.6C572.3 110.5 572.3 110.1 572.3 105.3C572.3 99.6 572.1 100.7 575.3 89.9C577.4 82.9 578.4 80.4 580.9 76.5C585.1 70 588.3 66.7 594.6 62.5C599.5 59.3 601.7 58.2 606.3 56.5C611.7 54.5 618 53.2 629.2 51.6C632.6 51.2 637 50.5 639.2 50.1C642.8 49.5 643.5 49.4 651.3 49.5C657.6 49.6 660.8 49.7 664.8 50.2ZM666.5 154.9C670.5 155.2 671.4 155.6 674.2 158.5C676.5 161 677.2 162.3 678.4 167C679.5 171.5 679.8 173.6 680 182.8C680.2 187.8 680.4 192.1 680.5 192.4C680.5 192.7 681 197.7 681.6 203.4C682.1 209.2 682.6 214.1 682.7 214.3C682.7 214.6 683.1 217.2 683.5 220.3C684.8 230.3 686.8 241.7 688.2 245.7C689.6 249.8 692.3 254 693.5 254C694 254 696.7 251.4 697.6 250.1C698.8 248.2 707.1 239.5 708.6 238.6C711 237 713 237.1 717.4 239.2C720 240.5 721.7 241.7 722.4 243C723.2 244.7 722 249.2 719.5 253.6C716.8 258.4 711.8 265.6 709.3 268.4C706.1 272 700 277.9 697.4 280C696.3 280.8 694.1 282.7 692.5 284.1C686.1 289.6 683.1 291.6 678 294.1C672.2 297 668.4 297.8 658 298.3C650.4 298.7 648.4 298.6 644.5 297.6C634.6 295.1 629.8 292.8 625.8 288.4C623.3 285.9 622.4 284.2 617.8 274.6C611.8 261.8 610.2 257.5 606.8 245.1C603.1 231.5 602.5 227.7 602.1 213.5C601.8 201.4 601.6 198.6 601 198.6C600.2 198.6 598.5 201.2 592.8 211C591 214 587.2 220.5 584.1 225.6C581 230.7 577 237.6 575 241C569 251.6 568.5 252.3 566.6 254.2C564.5 256.4 562.8 257.1 560.3 256.9C557.5 256.767 555.967 254.867 555.7 251.2C555.5 248.9 555.9 248 558.8 244.9C563.2 240 566 235.8 569.2 228.8C572.1 222.7 580 208.6 586.3 198.5C592.5 188.5 597.9 179.2 599.4 176C599.8 175 600.6 172.5 601.3 170.4C602.6 166 604.2 162.5 605.3 161.3C606.7 159.9 609.1 159.1 613.6 158.3C620.5 157.1 626.3 156.6 651.5 154.9C656 154.5 662.9 154.5 666.5 154.9Z"
        fill="#ED622B" />
    <path fill-rule="evenodd" clip-rule="evenodd"
        d="M637.4 90.8C634.9 91.5 630.9 93.5 629.1 95C628 95.9 627.5 97.5 628 98.7C629.7 102.7 640.6 106.3 651.5 106.4C654.3 106.5 655.2 106.4 656.9 105.9C661 104.6 664.9 102.1 664.9 100.7C664.9 100.4 664.7 99.8 664.4 99.3C662.4 96.1 657.7 93.5 650.2 91.3C647.4 90.6 646.3 90.4 643.4 90.3C640.4 90.1 639.7 90.2 637.4 90.8Z"
        fill="#ED622B" />
    <path
        d="M700.729 389.261C700.846 387.063 701.446 385.159 702.53 383.548C703.614 381.937 704.977 380.604 706.617 379.549C708.287 378.494 710.133 377.718 712.154 377.22C714.176 376.722 716.183 376.473 718.175 376.473C720.372 376.473 722.511 376.722 724.591 377.22C726.671 377.688 728.517 378.45 730.128 379.505C731.739 380.56 733.028 381.937 733.995 383.636C734.962 385.306 735.445 387.327 735.445 389.7V413.255C735.445 413.724 735.533 414.192 735.709 414.661C735.885 415.13 736.119 415.555 736.412 415.936C736.705 416.287 737.042 416.58 737.423 416.814C737.833 417.02 738.258 417.122 738.697 417.122C739.02 417.122 739.342 417.093 739.664 417.034C740.016 416.946 740.411 416.829 740.851 416.683V422.088C739.913 422.352 739.107 422.542 738.434 422.659C737.789 422.806 737.071 422.879 736.28 422.879C734.376 422.879 732.794 422.176 731.534 420.77C730.304 419.363 729.601 417.195 729.425 414.266C728.019 416.111 726.627 417.605 725.25 418.748C723.873 419.861 722.496 420.726 721.119 421.341C719.771 421.956 718.395 422.366 716.988 422.571C715.611 422.776 714.205 422.879 712.77 422.879C710.924 422.879 709.195 422.586 707.584 422C705.973 421.414 704.566 420.579 703.365 419.495C702.193 418.382 701.256 417.049 700.553 415.496C699.879 413.943 699.542 412.215 699.542 410.311C699.542 408.406 699.952 406.78 700.772 405.433C701.622 404.056 702.735 402.884 704.112 401.917C705.489 400.95 707.057 400.13 708.814 399.456C710.572 398.782 712.359 398.182 714.176 397.654C715.992 397.127 717.779 396.629 719.537 396.16C721.295 395.691 722.862 395.164 724.239 394.578C725.616 393.992 726.715 393.318 727.535 392.557C728.385 391.766 728.81 390.813 728.81 389.7C728.81 387.093 727.857 385.218 725.953 384.075C724.049 382.903 721.397 382.317 717.999 382.317C716.681 382.317 715.421 382.449 714.22 382.713C713.048 382.977 712.008 383.387 711.1 383.943C710.191 384.5 709.43 385.218 708.814 386.097C708.199 386.976 707.804 388.03 707.628 389.261H700.729ZM728.81 396.731C727.901 397.698 726.7 398.504 725.206 399.148C723.741 399.793 722.159 400.379 720.46 400.906C718.79 401.404 717.091 401.888 715.362 402.356C713.663 402.825 712.125 403.396 710.748 404.07C709.371 404.715 708.243 405.506 707.364 406.443C706.515 407.381 706.09 408.553 706.09 409.959C706.09 411.248 706.31 412.347 706.749 413.255C707.188 414.134 707.774 414.866 708.507 415.452C709.239 416.038 710.06 416.463 710.968 416.727C711.905 416.99 712.843 417.122 713.78 417.122C716.534 417.122 719.215 416.302 721.822 414.661C724.459 412.991 726.788 410.428 728.81 406.971V396.731Z"
        fill="#454545" />
    <path
        d="M654.19 377.264H660.826V384.031C663.141 381.365 665.646 379.446 668.341 378.274C671.036 377.073 673.79 376.473 676.603 376.473C678.712 376.473 680.587 376.78 682.228 377.396C683.897 378.011 685.304 378.904 686.446 380.076C687.618 381.219 688.497 382.625 689.083 384.295C689.698 385.936 690.006 387.796 690.006 389.876V422H683.458V390.667C683.458 389.144 683.268 387.854 682.887 386.8C682.535 385.716 682.008 384.852 681.305 384.207C680.602 383.533 679.737 383.05 678.712 382.757C677.716 382.464 676.588 382.317 675.328 382.317C673.307 382.317 671.417 382.684 669.659 383.416C667.901 384.119 666.363 385.071 665.045 386.272C663.727 387.444 662.687 388.807 661.925 390.359C661.192 391.883 660.826 393.465 660.826 395.105V422H654.19V377.264Z"
        fill="#454545" />
    <path
        d="M604.005 399.676C604.005 396.482 604.444 393.479 605.323 390.667C606.231 387.854 607.535 385.394 609.234 383.284C610.963 381.175 613.087 379.52 615.606 378.318C618.126 377.088 621.012 376.473 624.264 376.473C627.516 376.473 630.416 377.088 632.965 378.318C635.514 379.52 637.652 381.175 639.381 383.284C641.109 385.394 642.428 387.854 643.336 390.667C644.244 393.479 644.698 396.482 644.698 399.676C644.698 402.869 644.244 405.872 643.336 408.685C642.428 411.497 641.109 413.943 639.381 416.023C637.652 418.104 635.514 419.759 632.965 420.989C630.416 422.19 627.516 422.791 624.264 422.791C621.012 422.791 618.126 422.19 615.606 420.989C613.087 419.759 610.963 418.104 609.234 416.023C607.535 413.943 606.231 411.497 605.323 408.685C604.444 405.872 604.005 402.869 604.005 399.676ZM610.553 399.676C610.553 402.049 610.86 404.29 611.476 406.399C612.12 408.509 613.028 410.34 614.2 411.893C615.401 413.445 616.852 414.676 618.551 415.584C620.25 416.492 622.154 416.946 624.264 416.946C626.373 416.946 628.277 416.492 629.977 415.584C631.676 414.676 633.111 413.445 634.283 411.893C635.484 410.34 636.407 408.509 637.052 406.399C637.696 404.29 638.019 402.049 638.019 399.676C638.019 397.303 637.696 395.062 637.052 392.952C636.407 390.843 635.484 388.997 634.283 387.415C633.111 385.833 631.676 384.588 629.977 383.68C628.277 382.771 626.373 382.317 624.264 382.317C622.154 382.317 620.25 382.771 618.551 383.68C616.852 384.588 615.401 385.833 614.2 387.415C613.028 388.997 612.12 390.843 611.476 392.952C610.86 395.062 610.553 397.303 610.553 399.676Z"
        fill="#454545" />
    <path
        d="M578.077 393.743L594.82 422H587.086L573.419 398.489L565.201 406.707V422H558.565V359.378H565.201V397.962L586.383 377.264H594.469L578.077 393.743Z"
        fill="#454545" />
    <path
        d="M547.755 359.378V367.112H541.207V359.378H547.755ZM547.755 377.264V422H541.207V377.264H547.755Z"
        fill="#454545" />
</svg>

<svg version="1.2" xmlns="http://www.w3.org/2000/svg" viewBox="0 0 1280 445" width="1280"
    height="445"
    fill="#ed622b">
    <g>
        <path fill-rule="evenodd"
            d="m669.3 4.3c-4.4 0.3-18.4 1.9-21.9 2.4-3.9 0.6-12.1 1.1-25.9 1.7-9.6 0.4-22.5 1.1-25.4 1.3-3 0.3-10.4 0.7-20 1.2-5.7 0.2-14.6 1.1-19.4 1.9-23.6 3.8-33.8 6.1-43.4 9.6-5.7 2.1-14.9 6.5-18.3 8.7-3.7 2.4-11.3 8.6-13.1 10.8-1.8 2.1-6.8 10-7.2 11.3-0.6 2-0.2 7.7 0.7 9.8 1.3 3.3 1.3 3.2 0.1 7.9-1.5 5.6-2.1 9.1-2.8 15.8-0.3 3-0.8 7.4-1.1 9.8-1.1 8.6-1.4 11.6-1.8 19.8-0.3 6-0.3 10.2-0.2 14.7 0.3 7.8 0.3 7.5-0.2 16.1-0.5 9.5-0.5 15.4-0.2 32.7 0.2 13.9 0.5 20.5 1.1 24.7 0.1 1.1 0.4 4.2 0.6 6.9 0.3 2.8 0.6 6.7 0.9 8.7 0.2 2 0.4 5.2 0.4 6.9 0 5.4 0.5 11.7 1.5 17.7 0.5 3.2 1.1 7.3 1.3 9.1 0.3 1.8 0.6 4.1 0.8 5.1 0.1 1 0.4 3.3 0.6 5.2 0.3 1.8 0.7 4.5 1 5.9 0.3 1.4 0.6 3.1 0.6 3.8 0 1.8 0.8 5.3 2.8 12.8 0.6 2.5 2.9 8.6 4.6 12.5 2.6 6.1 3.7 8.5 4.6 10.2 1.2 2.5 5.7 8.8 8.9 12.6 1.5 1.7 3.1 3.7 3.7 4.5 0.5 0.9 1.4 2 2 2.5 2.3 2.1 7.9 4.3 15.5 6.1 2.3 0.6 5.8 1.5 7.7 2 12.9 3.4 22.1 4.4 30.7 3.3 1.7-0.2 6.2-0.5 10-0.7 3.9-0.2 10.2-0.4 14.1-0.6 13.7-0.5 22-0.6 30.4-0.1 10.7 0.6 18.8 0.9 26.2 0.9 7.2 0.1 38-0.6 46.2-1 3.2-0.2 9-0.4 12.8-0.6 3.9-0.1 8.7-0.4 10.6-0.5 2-0.2 6.1-0.4 9.1-0.6 12.8-0.7 19-1.7 27.5-4.3 8.2-2.5 17.1-6.4 22.9-10.1 3.2-2.1 11.8-8.4 15.1-11 4.5-3.7 9.6-8.6 12.4-12.2 3.3-4 5.7-9.4 7.8-17.5 0.3-1.5 1-3.5 1.4-4.2 0.4-0.8 0.9-1.9 1.2-2.5 0.3-0.6 0.8-2.3 1-3.8 0.3-1.6 1.2-5.5 1.9-8.9 1.3-5.4 1.4-6.6 1.8-11.4 0.3-5.7 0.1-22.9-0.4-30.7-0.4-7.1-0.3-18.6 0.3-26.7 0.8-10.7 1-17.9 0.6-27-0.4-10.5-0.8-14.9-3-36.5-0.2-1.4-0.7-7-1.1-12.3-0.5-5.4-1-11.1-1.2-12.7-0.3-3-1.1-13.9-1.6-21.8-0.2-2.5-0.4-6-0.6-7.8-0.2-1.7-0.3-4.9-0.3-6.9 0-5.1-0.5-9.5-1.7-13.9-1.7-6-2.1-8.3-2.1-10.2 0.1-1.3-0.1-2.1-0.5-3-0.3-0.7-0.9-2.4-1.4-3.9-0.7-2.2-1-2.8-2.3-4.1-2.5-2.5-5.9-4.7-7.4-4.7-0.4 0-2-0.8-3.7-1.8-1.6-1-3.9-2.2-4.9-2.7-1.1-0.5-2.5-1.2-3.2-1.6-1.5-0.9-4.9-2.1-8-3-2.3-0.6-5.6-1.9-10.4-4.2-4.4-2-15-5.3-18.6-5.8-0.8-0.1-5.1-0.8-9.7-1.5-12.5-2-13.8-2.2-28.7-2.5-6.2-0.1-12.1-0.4-13.2-0.6-4-0.5-12.3-1.3-14-1.3-0.9 0-2.9 0.2-4.5 0.3zm-4.5 45.9c6.5 0.8 9.3 1.3 14.7 2.9 6 1.8 12.2 4.2 16.2 6.2 3.7 1.9 7.4 4.9 10.2 8.5 6.4 8.2 10.2 16.3 11.7 25.1 1.9 11.6 0.5 22.4-4.1 31.3-2.5 4.9-3.8 6.2-12.1 12.5-5.7 4.3-9.2 6.6-14.1 8.9-3.6 1.8-4.7 2.2-8.6 3.2-6.1 1.5-9.9 1.9-22.5 2.2-5.7 0.1-11.5 0.3-12.8 0.4-3 0.1-16.9-0.3-20.8-0.7-7.4-0.7-13.6-2.7-18.9-5.8-2-1.2-3.9-2.4-4.2-2.7-0.3-0.3-2.6-1.9-5.1-3.7-8.7-6.3-13-10.3-16.1-15.1-1.5-2.4-4.4-8.3-5.3-10.8-0.7-2.1-0.7-2.5-0.7-7.3 0-5.7-0.2-4.6 3-15.4 2.1-7 3.1-9.5 5.6-13.4 4.2-6.5 7.4-9.8 13.7-14 4.9-3.2 7.1-4.3 11.7-6 5.4-2 11.7-3.3 22.9-4.9 3.4-0.4 7.8-1.1 10-1.5 3.6-0.6 4.3-0.7 12.1-0.6 6.3 0.1 9.5 0.2 13.5 0.7zm1.7 104.7c4 0.3 4.9 0.7 7.7 3.6 2.3 2.5 3 3.8 4.2 8.5 1.1 4.5 1.4 6.6 1.6 15.8 0.2 5 0.4 9.3 0.5 9.6 0 0.3 0.5 5.3 1.1 11 0.5 5.8 1 10.7 1.1 10.9 0 0.3 0.4 2.9 0.8 6 1.3 10 3.3 21.4 4.7 25.4 1.4 4.1 4.1 8.3 5.3 8.3 0.5 0 3.2-2.6 4.1-3.9 1.2-1.9 9.5-10.6 11-11.5 2.4-1.6 4.4-1.5 8.8 0.6 2.6 1.3 4.3 2.5 5 3.8 0.8 1.7-0.4 6.2-2.9 10.6-2.7 4.8-7.7 12-10.2 14.8-3.2 3.6-9.3 9.5-11.9 11.6-1.1 0.8-3.3 2.7-4.9 4.1-6.4 5.5-9.4 7.5-14.5 10-5.8 2.9-9.6 3.7-20 4.2-7.6 0.4-9.6 0.3-13.5-0.7-9.9-2.5-14.7-4.8-18.7-9.2-2.5-2.5-3.4-4.2-8-13.8-6-12.8-7.6-17.1-11-29.5-3.7-13.6-4.3-17.4-4.7-31.6-0.3-12.1-0.5-14.9-1.1-14.9-0.8 0-2.5 2.6-8.2 12.4-1.8 3-5.6 9.5-8.7 14.6-3.1 5.1-7.1 12-9.1 15.4-6 10.6-6.5 11.3-8.4 13.2-2.1 2.2-3.8 2.9-6.3 2.7q-4.2-0.2-4.6-5.7c-0.2-2.3 0.2-3.2 3.1-6.3 4.4-4.9 7.2-9.1 10.4-16.1 2.9-6.1 10.8-20.2 17.1-30.3 6.2-10 11.6-19.3 13.1-22.5 0.4-1 1.2-3.5 1.9-5.6 1.3-4.4 2.9-7.9 4-9.1 1.4-1.4 3.8-2.2 8.3-3 6.9-1.2 12.7-1.7 37.9-3.4 4.5-0.4 11.4-0.4 15 0z" />
        <path fill-rule="evenodd"
            d="m637.4 90.8c-2.5 0.7-6.5 2.7-8.3 4.2-1.1 0.9-1.6 2.5-1.1 3.7 1.7 4 12.6 7.6 23.5 7.7 2.8 0.1 3.7 0 5.4-0.5 4.1-1.3 8-3.8 8-5.2 0-0.3-0.2-0.9-0.5-1.4-2-3.2-6.7-5.8-14.2-8-2.8-0.7-3.9-0.9-6.8-1-3-0.2-3.7-0.1-6 0.5zm-100.5 264.5c-2.9 0.6-5.8 3.1-7 6l-0.6 1.6v69.6l0.6 1.6c1.8 4.3 6.7 7 11.1 6 3.1-0.6 5.7-2.7 7.1-5.5 0.7-1.5 0.8-1.8 0.9-7.2l0.1-5.7 2.5-2.7c1.4-1.6 2.5-2.8 2.6-2.8 0.1 0 2 3 4.3 6.8 9.1 15.1 9.1 15.1 11.9 16.5 2.1 0.9 4.9 0.9 7.3 0 2.2-0.8 4.3-2.9 5.1-5.1 0.7-1.7 0.8-4.4 0.2-6.2-0.2-0.6-3.6-6.5-7.6-12.9l-7.2-11.6 0.7-0.8c6.2-6.8 9.3-10.4 9.9-11.5 0.5-1 0.6-1.7 0.6-3.4 0-2.4-0.8-4.2-2.6-5.8-1.7-1.5-2.8-2-5.2-2-1.7 0-2.4 0.1-3.6 0.8-1.4 0.7-2.4 1.6-10.1 10.7-4.6 5.5-8.6 10-8.7 10.1-0.1 0-0.2-8.4-0.2-18.9 0-20.5 0-21-1.5-23.2-1-1.5-2.7-3-4.2-3.7-1.6-0.8-4.5-1.1-6.4-0.7zm-35.7 0.8c-3.8 0.7-6.4 3.7-6.7 7.6-0.2 3.5 1.4 6.3 4.5 7.8l1.8 0.9 4.7-0.1c5.4-0.1 6.1-0.3 8-2.3 1.8-1.9 2.3-3.3 2.3-5.8 0-2.5-0.7-4.2-2.5-5.9-1.8-1.8-3.3-2.2-7.4-2.4-2 0-4.1 0.1-4.7 0.2zm115 23.6c-3 0.4-6 1.1-7.6 1.7-10.1 3.6-16.5 11.4-18.5 22.7-0.5 3.1-0.4 11.1 0.3 14.1 3.3 14.6 13.8 22.7 29.5 22.7 6.5 0 10.8-0.9 15.7-3.3 9.9-4.8 15.5-14.7 15.5-27.2 0.1-19-12-31.1-30.9-30.9-1.8 0.1-3.6 0.1-4 0.2zm8.3 14.7c3 1.4 4.9 4.3 6 8.7 0.5 2 0.6 3.3 0.6 7.1 0.1 5.1-0.2 6.7-1.5 10.1-1 2.7-2.7 4.6-4.8 5.7-1.4 0.6-1.9 0.7-4.4 0.7-2.4 0-2.9-0.1-4.3-0.7-3-1.6-5-4.6-6-9.5-0.5-2.3-0.6-3.4-0.5-7.4 0.2-5.2 0.5-6.8 2.1-10 1.8-3.7 5.1-5.7 9.2-5.4 1.5 0 2.6 0.3 3.6 0.7zm128.4-14.4c-4.5 0.5-8.2 1.6-11.3 3.1-4.9 2.4-7.2 5.3-7.1 9.2 0 5 3.5 8.1 8.6 7.8 2.5-0.1 4-0.8 7.6-3.3 3.7-2.7 5-3.1 9.2-3.1 3.2 0 3.6 0 4.8 0.7 2.3 1.2 3.3 3.3 3.5 7.4l0.1 2.1-7.3 0.2c-11.6 0.3-17 1.3-22.3 4.2-2.2 1.2-5.1 4.1-6.2 6.1-2.3 4.4-2.4 11.7-0.2 16.4 2.4 4.9 7.3 8.5 13.3 9.6 3 0.5 8.8 0.4 11.7-0.3 4.4-1.1 7.9-3.2 10.5-6.4 1.1-1.3 1.4-1.4 1.4-0.5 0 0.9 1.4 3.3 2.5 4.4 2.7 2.7 6.7 3.4 10.1 1.8 2.1-0.9 3.7-2.6 4.7-4.8l0.8-1.5 0.1-14.4c0-15.2-0.1-19.7-1.1-23.4-2.8-10.9-11.3-15.9-26.8-15.8-2 0.1-5 0.3-6.6 0.5zm15.4 36.7c-0.5 6.7-4.3 10.9-10.4 11.5-4.3 0.3-7.4-1.9-7.8-5.7-0.2-1.8 0.3-3.4 1.4-4.7 2.2-2.5 5.1-3.2 13-3.3h4zm-72.2-36.7c-2.6 0.4-5.9 1.5-7.8 2.7-2.3 1.3-5.5 4.5-6.7 6.6l-0.9 1.6-0.2-2c-0.3-3.7-2.3-6.6-5.4-8-2.2-1-5.3-1.1-7.5 0-2 0.9-3.7 2.6-4.6 4.6l-0.7 1.5-0.1 22c-0.1 24.5-0.1 24 1.7 26.8 1.8 2.8 4.8 4.4 8.3 4.3 3.8 0 7-2.1 8.7-5.5l0.9-1.9 0.2-14.4c0.1-15.2 0.1-15.3 1.4-18.3 0.8-1.9 2.3-3.4 4.2-4.4 1.6-0.7 2.1-0.8 4.1-0.8 4.2 0 6.6 1.8 8.1 6.1 0.4 1.1 0.4 3.6 0.6 16.6l0.1 15.2 0.8 1.6c1.4 3.1 4 5.1 7.4 5.8 4.7 0.8 9.4-2.2 11-6.9 0.5-1.7 0.5-2.5 0.5-16.5 0-18.1-0.2-21.2-2-25.7-2.1-5.4-6.3-9-12-10.5-2.4-0.6-7.7-0.9-10.1-0.5zm-193 0.3c-2.9 0.7-5.7 2.9-6.9 5.5l-0.8 1.5v45.4l0.7 1.6c1.5 3.1 4.1 5.1 7.5 5.8 4.7 0.8 9.5-2.2 10.9-7 0.6-1.7 0.6-2.3 0.5-23.5v-21.7l-0.7-1.7c-0.9-2.3-3.2-4.5-5.4-5.3-1.8-0.7-4.5-1-5.8-0.6z" />
    </g>
</svg>
